X: 793
T: Gongda taiyuan
L: 1/8
M: 2/4
K: Eb
B2e c [I:setbarnb 1]| 
B> cB2 | 
B2g3/ f/ | 
e fe2 | 
B g/ g/ f e | 
f3z | 
e B c e | 
B4 |]

@@@ Tune index: 9667
